icons/mobile/72/svg/private-mode-circle-fill-72.svg

<svg width="72" height="72" viewBox="0 0 72 72" fill="none" xmlns="http://www.w3.org/2000/svg">
<g clip-path="url(#clip0_7046_1769)">
<circle cx="36" cy="36" r="36" fill="black"/>
<path d="M63.5036 39.0171C60.8021 39.0171 59.4247 37.0591 58.9093 34.3988C58.1629 30.5443 56.8655 26.9006 55.3281 23.2657C54.5373 21.3955 53.0888 17.1021 50.6984 16.6104C47.9791 16.0485 45.5798 17.5147 42.4785 23.731C39.9281 28.8586 38.2042 32.432 38.2042 32.432V32.4672L36.4536 32.4496C36.4536 32.4496 36.4358 32.4496 36.4091 32.4496C36.4091 32.4496 36.3025 32.4496 36.1692 32.4496C36.1337 32.4496 36.107 32.4496 36.0714 32.4496C36.0448 32.4496 36.0181 32.4496 35.9915 32.4496C35.9648 32.4496 35.9382 32.4496 35.9115 32.4496C35.8759 32.4496 35.8404 32.4496 35.8137 32.4496C35.6805 32.4496 35.5738 32.4496 35.5738 32.4496C35.5738 32.4496 35.5294 32.4496 35.5294 32.4584L33.7788 32.4759V32.4408C33.7788 32.4408 32.0548 28.8586 29.5044 23.7398C26.412 17.5147 24.0038 16.0572 21.2846 16.6192C18.8942 17.1108 17.4457 21.4131 16.6548 23.2744C15.1175 26.9094 13.8201 30.5443 13.0736 34.4075C12.5582 37.0679 11.1897 39.0171 8.47937 39.0259C7.78624 39.0259 7.32415 39.7458 7.56408 40.3868C8.14169 41.9321 9.91896 42.9154 11.403 43.4861C10.7365 43.6617 8.74596 43.2578 8.6571 44.2588C8.58601 45.0753 10.6654 45.9006 11.2253 46.164C16.4593 48.6839 21.2757 53.2056 27.4695 52.4066C30.162 52.0554 32.1259 50.159 34.3297 48.9824C35.3694 48.4293 36.6313 48.4293 37.671 48.9824C39.8748 50.159 41.8387 52.0554 44.5312 52.4066C50.725 53.2056 55.5414 48.6839 60.7755 46.164C61.3353 45.8918 63.4058 45.0753 63.3436 44.2588C63.2636 43.2666 61.2731 43.6617 60.5977 43.4861C62.0818 42.9154 63.859 41.9321 64.4366 40.3868C64.6766 39.7458 64.2056 39.0346 63.5213 39.0259L63.5036 39.0171ZM19.6317 40.3429C19.5517 39.5088 21.3646 38.8678 22.0222 38.7624C25.9321 38.1127 31.1129 39.6405 32.3747 43.6881C28.7847 46.963 21.3912 44.7065 19.6317 40.3516V40.3429ZM39.5993 43.6881C40.8612 39.6405 46.0419 38.1127 49.9519 38.7624C50.6095 38.8678 52.4223 39.5088 52.3423 40.3429C50.574 44.6978 43.1894 46.963 39.5993 43.6793V43.6881Z" fill="white"/>
</g>
<defs>
<clipPath id="clip0_7046_1769">
<rect width="72" height="72" fill="white"/>
</clipPath>
</defs>
</svg>

<!-- This Source Code Form is subject to the terms of the Mozilla Public
   - License, v. 2.0. If a copy of the MPL was not distributed with this
   - file, You can obtain one at http://mozilla.org/MPL/2.0/. -->
<svg xmlns="http://www.w3.org/2000/svg" width="72" height="72" fill="none" viewBox="0 0 72 72">
    <circle cx="36" cy="36" r="36" fill="#000" />
    <path fill="#fff" d="M63.504 39.017c-2.702 0-4.08-1.958-4.595-4.618-.746-3.855-2.044-7.498-3.58-11.133-.792-1.87-2.24-6.164-4.63-6.656-2.72-.561-5.12.905-8.22 7.121a890 890 0 0 0-4.275 8.701v.035l-1.75-.017h-.88s-.045 0-.045.008l-1.75.018v-.035s-1.724-3.582-4.275-8.701c-3.092-6.225-5.5-7.683-8.22-7.12-2.39.49-3.838 4.793-4.63 6.654-1.537 3.635-2.834 7.27-3.58 11.133-.516 2.66-1.884 4.61-4.595 4.619-.693 0-1.155.72-.915 1.36.578 1.546 2.355 2.53 3.839 3.1-.667.176-2.657-.228-2.746.773-.071.816 2.008 1.642 2.568 1.905 5.234 2.52 10.05 7.042 16.245 6.243 2.692-.352 4.656-2.248 6.86-3.425a3.57 3.57 0 0 1 3.341 0c2.204 1.177 4.168 3.073 6.86 3.425 6.194.799 11.01-3.723 16.245-6.243.56-.272 2.63-1.089 2.568-1.905-.08-.992-2.07-.597-2.746-.773 1.484-.57 3.261-1.554 3.839-3.1.24-.64-.231-1.351-.916-1.36zm-43.872 1.326c-.08-.834 1.733-1.475 2.39-1.58 3.91-.65 9.09.878 10.353 4.925-3.59 3.275-10.984 1.018-12.743-3.336zm19.967 3.345c1.262-4.047 6.443-5.575 10.353-4.926.657.106 2.47.747 2.39 1.58-1.768 4.356-9.153 6.621-12.743 3.337z" />
</svg>
